web/src/icons/water-point.svg

<?xml version="1.0" encoding="UTF-8"?>
<svg id="Layer_1" data-name="Layer 1" xmlns="http://www.w3.org/2000/svg" viewBox="0 0 267.1665 307.46446">
  <defs>
    <style>
      .cls-1 {
        fill: #fff;
      }
    </style>
  </defs>
  <g>
    <path class="cls-1" d="M62.68442,184.13999H28.60239c-6.62744,0-12-5.37305-12-12,0-36.74805,7.58252-60.70605,24.58594-77.68066,10.69531-10.67676,24.62744-17.80957,42.59277-21.80859,6.66553-1.4834,14.00537-2.56641,22.28418-3.28223,5.68359-10.09863,14.33594-18.16113,24.71973-23.12109-18.13135,2.49316-26.16895,.76855-30.80957-.9668-2.55322-.9541-10.31738-3.85742-14.25049-11.41113-2.50391-4.80859-2.88477-10.42285-1.07373-15.80762,2.04443-6.07715,6.75537-11.35645,12.60156-14.12109C103.66148,.91147,111.42222-.35415,120.97349,.08237c2.50146,.11328,9.87012,.44824,34.03076,8.06055C179.16489,.53061,186.53306,.19565,189.03306,.08237c9.55713-.43359,17.31348,.82812,23.7207,3.85742,5.84766,2.76562,10.55859,8.04492,12.60303,14.12207,.76514,2.27539,1.13916,4.5918,1.12695,6.87012h28.68262c6.62744,0,12,5.37305,12,12v120.52441c0,6.62695-5.37256,12-12,12h-34.08203c-6.62744,0-12-5.37305-12-12v-31.18359l-6.19629,.00781c-10.10742,16.50488-28.13379,26.80078-47.88379,26.80078-19.15869,0-36.82471-9.79199-47.07959-25.53906-13.13623,1.40332-21.7666,4.09473-25.70166,8.02246-3.43945,3.43359-7.53857,12.56445-7.53857,36.5752,0,6.62695-5.37256,12-12,12Zm-21.75439-24h10.09424c1.21777-20.02637,5.74854-33.08203,14.24316-41.56055,9.26562-9.25,24.26953-14.06738,48.64941-15.62012,4.99854-.32129,9.6709,2.50293,11.7168,7.07617,5.1748,11.57031,16.70312,19.0459,29.37061,19.0459,12.89111,0,24.5-7.66016,29.5752-19.51465,1.88818-4.40918,6.22021-7.27148,11.0166-7.27734l25.47314-.03223c3.146-.00684,6.2417,1.25781,8.49512,3.50977,2.25342,2.25,3.52002,5.30469,3.52002,8.49023v31.19922h10.08203V48.93198h-10.08203v31.24316c0,6.62109-5.36328,11.99121-11.98486,12l-25.20557,.03223h-.01514c-4.87061,0-9.25879-2.94434-11.10498-7.45215-3.94629-9.6377-12.33789-16.79492-22.44678-19.14551-3.09521-.7207-5.67529-2.60059-7.32324-5.11816-1.64795,2.5166-4.22803,4.39746-7.32275,5.11719-10.30371,2.39746-18.76416,9.72461-22.63184,19.60156-1.70752,4.36133-5.79688,7.33105-10.47266,7.60449-9.96924,.58301-18.33691,1.65039-25.58203,3.2627-13.38428,2.97949-23.47607,8.00586-30.85059,15.36719-10.41797,10.40039-15.87939,25.67383-17.21387,48.69531ZM221.08433,80.17514h0Zm-41.88379-33.93066c9.96826,4.7666,18.36719,12.4082,24.05713,21.95312l5.82666-.00684v-22.57324c-4.78076,1.60547-12.91357,2.96484-29.88379,.62695Z"/>
    <path class="cls-1" d="M45.64341,307.46421C20.47544,307.46421-.00015,286.98862-.00015,261.82065-.00015,251.28354,6.30405,237.87729,19.27231,220.8353c8.7334-11.47656,17.36572-20.46484,17.729-20.8418,2.26221-2.34863,5.38184-3.6748,8.64209-3.6748s6.37988,1.32617,8.64209,3.6748c.36328,.37695,8.99561,9.36523,17.729,20.8418,12.96826,17.04199,19.27197,30.44824,19.27197,40.98535,0,25.16797-20.47559,45.64355-45.64307,45.64355Zm.02588-81.24707c-11.55908,13.66699-21.66943,29.02246-21.66943,35.60352,0,11.93457,9.70947,21.64355,21.64355,21.64355s21.64307-9.70898,21.64307-21.64355c0-5.51074-8.39453-20.05859-21.61719-35.60352Z"/>
  </g>
  <g>
    <path class="cls-1" d="M221.08447,36.93175v43.24316l-25.20581,.03271c-5.35791-13.08447-16.81226-23.02539-30.83325-26.28613V31.55675c14.76904,3.09961,32.36743,5.63037,40.78564,2.4834,3.09229-1.15576,6.28418-2.78467,7.80859-5.71289,2.54834-4.89404-1.02588-11.17969-6.01465-13.53857-5.00928-2.36816-11.32642-3.02393-18.04688-2.71875-7.45776,.33838-23.02222,4.93848-34.57397,8.66895-11.55176-3.73047-27.11646-8.33057-34.57422-8.66895-6.72046-.30518-13.03735,.35059-18.04688,2.71875-4.98853,2.35889-8.56299,8.64453-6.0144,13.53857,1.52441,2.92822,4.71582,4.55713,7.80811,5.71289,8.41846,3.14697,26.01709,.61621,40.78564-2.4834v22.36475c-14.24463,3.31299-25.84229,13.52002-31.08691,26.91406-10.67871,.62451-19.66016,1.78662-27.48682,3.52832-15.67554,3.48877-27.6875,9.56885-36.72217,18.58789-14.56763,14.54248-21.06421,35.88086-21.06421,69.18848H62.68433c0-23.21436,3.5144-37.53516,11.06079-45.06787,6.94702-6.93506,19.6084-10.77881,40.93433-12.13721,6.8916,15.40869,22.35352,26.146,40.32471,26.146,18.22095,0,33.86255-11.03809,40.60718-26.7915l25.47314-.03271v43.19971h34.08203V36.93175h-34.08203Z"/>
    <path class="cls-1" d="M12,261.82091c0,18.58105,15.06274,33.64355,33.64355,33.64355s33.64307-15.0625,33.64307-33.64355-33.64307-53.50195-33.64307-53.50195c0,0-33.64355,34.92139-33.64355,53.50195Z"/>
  </g>
  <g>
    <path d="M221.08447,36.93175v43.24316l-25.20581,.03271c-5.35791-13.08447-16.81226-23.02539-30.83325-26.28613V31.55675c14.76904,3.09961,32.36743,5.63037,40.78564,2.4834,3.09229-1.15576,6.28418-2.78467,7.80859-5.71289,2.54834-4.89404-1.02588-11.17969-6.01465-13.53857-5.00928-2.36816-11.32642-3.02393-18.04688-2.71875-7.45776,.33838-23.02222,4.93848-34.57397,8.66895-11.55176-3.73047-27.11646-8.33057-34.57422-8.66895-6.72046-.30518-13.03735,.35059-18.04688,2.71875-4.98853,2.35889-8.56299,8.64453-6.0144,13.53857,1.52441,2.92822,4.71582,4.55713,7.80811,5.71289,8.41846,3.14697,26.01709,.61621,40.78564-2.4834v22.36475c-14.24463,3.31299-25.84229,13.52002-31.08691,26.91406-10.67871,.62451-19.66016,1.78662-27.48682,3.52832-15.67554,3.48877-27.6875,9.56885-36.72217,18.58789-14.56763,14.54248-21.06421,35.88086-21.06421,69.18848H62.68433c0-23.21436,3.5144-37.53516,11.06079-45.06787,6.94702-6.93506,19.6084-10.77881,40.93433-12.13721,6.8916,15.40869,22.35352,26.146,40.32471,26.146,18.22095,0,33.86255-11.03809,40.60718-26.7915l25.47314-.03271v43.19971h34.08203V36.93175h-34.08203Z"/>
    <path d="M12,261.82091c0,18.58105,15.06274,33.64355,33.64355,33.64355s33.64307-15.0625,33.64307-33.64355-33.64307-53.50195-33.64307-53.50195c0,0-33.64355,34.92139-33.64355,53.50195Z"/>
  </g>
</svg>

<?xml version="1.0" encoding="UTF-8" standalone="no"?>
<!DOCTYPE svg PUBLIC "-//W3C//DTD SVG 1.1//EN" "http://www.w3.org/Graphics/SVG/1.1/DTD/svg11.dtd">
<svg width="100%" height="100%" viewBox="0 0 50 58" version="1.1" xmlns="http://www.w3.org/2000/svg" xmlns:xlink="http://www.w3.org/1999/xlink" xml:space="preserve" xmlns:serif="http://www.serif.com/" style="fill-rule:evenodd;clip-rule:evenodd;stroke-linejoin:round;stroke-miterlimit:2;">
    <g transform="matrix(0.187149,0,0,0.187149,0,0)">
        <path d="M62.684,184.14L28.602,184.14C21.975,184.14 16.602,178.767 16.602,172.14C16.602,135.392 24.185,111.434 41.188,94.459C51.884,83.783 65.816,76.65 83.781,72.651C90.447,71.167 97.786,70.084 106.065,69.369C111.749,59.27 120.401,51.207 130.785,46.247C112.654,48.741 104.616,47.016 99.975,45.281C97.422,44.327 89.658,41.423 85.725,33.869C83.221,29.061 82.84,23.447 84.651,18.062C86.696,11.985 91.407,6.705 97.253,3.941C103.661,0.911 111.422,-0.354 120.973,0.082C123.475,0.196 130.844,0.531 155.004,8.143C179.165,0.531 186.533,0.196 189.033,0.082C198.59,-0.351 206.347,0.91 212.754,3.94C218.601,6.705 223.312,11.985 225.357,18.062C226.122,20.337 226.496,22.654 226.484,24.932L255.166,24.932C261.794,24.932 267.166,30.305 267.166,36.932L267.166,157.456C267.166,164.083 261.794,169.456 255.166,169.456L221.084,169.456C214.457,169.456 209.084,164.083 209.084,157.456L209.084,126.273L202.888,126.281C192.781,142.785 174.754,153.081 155.004,153.081C135.846,153.081 118.18,143.289 107.925,127.542C94.788,128.946 86.158,131.637 82.223,135.565C78.784,138.998 74.684,148.129 74.684,172.14C74.684,178.767 69.312,184.14 62.684,184.14ZM40.93,160.14L51.024,160.14C52.242,140.114 56.773,127.058 65.267,118.579C74.533,109.329 89.537,104.512 113.917,102.959C118.915,102.638 123.588,105.462 125.634,110.035C130.808,121.606 142.337,129.081 155.004,129.081C167.895,129.081 179.504,121.421 184.579,109.567C186.468,105.158 190.8,102.295 195.596,102.289L221.069,102.257C224.215,102.25 227.311,103.515 229.564,105.767C231.818,108.017 233.084,111.072 233.084,114.257L233.084,145.456L243.166,145.456L243.166,48.932L233.084,48.932L233.084,80.175C233.084,86.796 227.721,92.166 221.099,92.175L195.894,92.207L195.879,92.207C191.008,92.207 186.62,89.263 184.774,84.755C180.827,75.118 172.436,67.96 162.327,65.61C159.232,64.889 156.652,63.009 155.004,60.492C153.356,63.008 150.776,64.889 147.681,65.609C137.377,68.006 128.917,75.333 125.049,85.21C123.342,89.572 119.252,92.541 114.577,92.815C104.607,93.398 96.24,94.465 88.994,96.077C75.61,99.057 65.518,104.083 58.144,111.445C47.726,121.845 42.265,137.119 40.93,160.14ZM179.201,46.244C189.169,51.011 197.568,58.653 203.258,68.198L209.084,68.191L209.084,45.618C204.304,47.223 196.171,48.582 179.201,46.244L179.201,46.244Z" style="fill:white;fill-rule:nonzero;"/>
        <path d="M45.643,307.464C20.475,307.464 -0,286.989 -0,261.821C-0,251.284 6.304,237.877 19.272,220.835C28.006,209.359 36.638,200.37 37.001,199.993C39.264,197.645 42.383,196.319 45.643,196.319C48.904,196.319 52.023,197.645 54.285,199.993C54.649,200.37 63.281,209.359 72.014,220.835C84.983,237.877 91.286,251.284 91.286,261.821C91.286,286.989 70.811,307.464 45.643,307.464L45.643,307.464ZM45.669,226.217C34.11,239.884 24,255.24 24,261.821C24,273.755 33.709,283.464 45.643,283.464C57.577,283.464 67.286,273.755 67.286,261.821C67.286,256.31 58.892,241.762 45.669,226.217Z" style="fill:white;fill-rule:nonzero;"/>
    </g>
    <g transform="matrix(0.187149,0,0,0.187149,0,0)">
        <path d="M221.084,36.932L221.084,80.175L195.879,80.208C190.521,67.123 179.066,57.182 165.045,53.921L165.045,31.557C179.814,34.656 197.413,37.187 205.831,34.04C208.923,32.884 212.115,31.255 213.64,28.327C216.188,23.433 212.614,17.148 207.625,14.789C202.616,12.421 196.299,11.765 189.578,12.07C182.12,12.408 166.556,17.008 155.004,20.739C143.452,17.008 127.888,12.408 120.43,12.07C113.709,11.765 107.393,12.421 102.383,14.789C97.395,17.148 93.82,23.433 96.369,28.327C97.893,31.255 101.084,32.884 104.177,34.04C112.595,37.187 130.194,34.656 144.962,31.557L144.962,53.922C130.718,57.234 119.12,67.442 113.875,80.836C103.197,81.46 94.215,82.622 86.389,84.364C70.713,87.853 58.701,93.933 49.666,102.952C35.099,117.494 28.602,138.833 28.602,172.14L62.684,172.14C62.684,148.926 66.199,134.605 73.745,127.072C80.692,120.137 93.354,116.294 114.679,114.935C121.571,130.344 137.033,141.081 155.004,141.081C173.225,141.081 188.867,130.043 195.611,114.29L221.084,114.257L221.084,157.457L255.167,157.457L255.167,36.932L221.084,36.932Z" style="fill:white;fill-rule:nonzero;"/>
        <path d="M12,261.821C12,280.402 27.063,295.464 45.644,295.464C64.224,295.464 79.287,280.402 79.287,261.821C79.287,243.24 45.644,208.319 45.644,208.319C45.644,208.319 12,243.24 12,261.821Z" style="fill:white;fill-rule:nonzero;"/>
    </g>
    <g transform="matrix(0.187149,0,0,0.187149,0,0)">
        <path d="M221.084,36.932L221.084,80.175L195.879,80.208C190.521,67.123 179.066,57.182 165.045,53.921L165.045,31.557C179.814,34.656 197.413,37.187 205.831,34.04C208.923,32.884 212.115,31.255 213.64,28.327C216.188,23.433 212.614,17.148 207.625,14.789C202.616,12.421 196.299,11.765 189.578,12.07C182.12,12.408 166.556,17.008 155.004,20.739C143.452,17.008 127.888,12.408 120.43,12.07C113.709,11.765 107.393,12.421 102.383,14.789C97.395,17.148 93.82,23.433 96.369,28.327C97.893,31.255 101.084,32.884 104.177,34.04C112.595,37.187 130.194,34.656 144.962,31.557L144.962,53.922C130.718,57.234 119.12,67.442 113.875,80.836C103.197,81.46 94.215,82.622 86.389,84.364C70.713,87.853 58.701,93.933 49.666,102.952C35.099,117.494 28.602,138.833 28.602,172.14L62.684,172.14C62.684,148.926 66.199,134.605 73.745,127.072C80.692,120.137 93.354,116.294 114.679,114.935C121.571,130.344 137.033,141.081 155.004,141.081C173.225,141.081 188.867,130.043 195.611,114.29L221.084,114.257L221.084,157.457L255.167,157.457L255.167,36.932L221.084,36.932Z" style="fill:rgb(0,93,150);fill-rule:nonzero;"/>
        <path d="M12,261.821C12,280.402 27.063,295.464 45.644,295.464C64.224,295.464 79.287,280.402 79.287,261.821C79.287,243.24 45.644,208.319 45.644,208.319C45.644,208.319 12,243.24 12,261.821Z" style="fill:rgb(0,93,150);fill-rule:nonzero;"/>
    </g>
</svg>
